X:194
T:Miss Townsend's Delight. JJo8.194
B:J.Johnson Choice Collection Vol 8 1758
Z:vmp.Simon Wilson 2013 www.village-music-project.org.uk
M:6/8
L:1/8
Q:3/8=100
K:Dm
a/g/|(fed) ^cde|(d^c)d-d2d|ede- efg|f>ed zc'b|
(agf) (efg)|fef-f2(g/a//b//)|agf cfe|Tf<eff2:|
|:a|a>ga Ffa|g>fg Eeg|(fe)d (bg)e|d3^c2A|
=B^cd efg|fd^ga2=g|fed A=B^c|d3D2:|
